X: 31169
T: Paddy Fahey's
R: reel
M: 4/4
K: Gdorian
F3 G Ac|:fedg fdcA|F/E/F AF cFAc|fedg fdcA|FGAc dG~G2|
fedg fdcA|F/E/F AF cF A2|agfa g2 f/e/d|c2Ac dG~G2:|
|:B2GD B/A/G EG|FcAF cF A/c/d|B2GD B/A/G EG|FdcA dG~G2|
B2GD B/A/G EG|FcAF cF A2|agfa g2 f/e/d|c2Ac dG~G2:|

